web/themes/custom/oh_my_pasta/images/icons/facebook.svg

<svg width="48" height="49" viewBox="0 0 48 49" fill="none" xmlns="http://www.w3.org/2000/svg">
<g clip-path="url(#clip0_1300_673)">
<rect y="0.333008" width="48" height="48" rx="8" fill="#004A36"/>
<g clip-path="url(#clip1_1300_673)">
<path d="M28.3286 15.244C28.3778 15.1885 28.6077 15.0073 29.5105 15.0073L32.4705 15.0062C33.4334 15.0062 34.2165 14.2228 34.2165 13.2599V8.08643C34.2165 7.12512 33.4345 6.3418 32.4732 6.34015L28.0765 6.33301C25.3629 6.33301 23.056 7.22812 21.4053 8.92194C19.7621 10.6081 18.8933 12.9619 18.8933 15.7285V18.5188H15.5298C14.5669 18.5188 13.7836 19.3021 13.7836 20.265V25.8368C13.7836 26.7997 14.5669 27.583 15.5298 27.583H18.8933V40.5867C18.8933 41.5497 19.6766 42.333 20.6396 42.333H26.4047C27.3676 42.333 28.1509 41.5497 28.1509 40.5867V27.5833H32.2623C33.2252 27.5833 34.0083 26.7997 34.0083 25.8373L34.0105 20.2653C34.0105 19.6328 33.6663 19.0475 33.1121 18.7379C32.8553 18.5946 32.5565 18.5188 32.2483 18.5188H28.1509V16.3144C28.1509 15.5959 28.2476 15.3358 28.3286 15.244Z" fill="white"/>
</g>
</g>
<defs>
<clipPath id="clip0_1300_673">
<rect width="48" height="48" fill="white" transform="translate(0 0.333008)"/>
</clipPath>
<clipPath id="clip1_1300_673">
<rect width="38.4329" height="36" fill="white" transform="translate(4.78357 6.33301)"/>
</clipPath>
</defs>
</svg>

<svg width="48" height="49" fill="none" xmlns="http://www.w3.org/2000/svg"><g clip-path="url(#clip0_1300_673)"><rect y=".333" width="48" height="48" rx="8" fill="#004A36"/><g clip-path="url(#clip1_1300_673)"><path d="M28.329 15.244c.049-.056.279-.237 1.181-.237h2.96a1.75 1.75 0 001.747-1.747V8.086a1.75 1.75 0 00-1.744-1.746l-4.396-.007c-2.714 0-5.021.895-6.672 2.589-1.643 1.686-2.512 4.04-2.512 6.806v2.79H15.53c-.963 0-1.746.784-1.746 1.747v5.572c0 .963.783 1.746 1.746 1.746h3.363v13.004c0 .963.784 1.746 1.747 1.746h5.765c.963 0 1.746-.783 1.746-1.746V27.583h4.111c.963 0 1.746-.783 1.746-1.746l.002-5.572c0-.632-.344-1.218-.898-1.527a1.775 1.775 0 00-.864-.22h-4.097v-2.204c0-.718.097-.978.178-1.07z" fill="#fff"/></g></g><defs><clipPath id="clip0_1300_673"><path fill="#fff" transform="translate(0 .333)" d="M0 0h48v48H0z"/></clipPath><clipPath id="clip1_1300_673"><path fill="#fff" transform="translate(4.784 6.333)" d="M0 0h38.433v36H0z"/></clipPath></defs></svg>
